X:307
T:The Whistling Postman
R:reel
M:4/4
L:1/8
K:Dmaj
|:e|fddf edef|dBAF EGFE|DEFD FA~A2|ABdf g2ag|
fddf edef|dBAF EGFE|DEFA Bcdf|edBc d3:|
e|fddc dfaf|bfaf gfef|dfaf g2fg|afdf e2de|
fddc dfaf|bfaf gfef|dBAF ABdf|edBc d3e|
fddc dfaf|bfaf gfef|dfaf g2fg|afdf e2fg|
~a3b afdf|g2fg edBc|dBAF ABdf|edBc d3||

